X:1
T:Buffalo Skinners
M:4/4
L:1/4
K:C
 C/2C/2| E E E E| E F2 E/2E/2| D C A, A,| A,3 G| A G/2G/2 A G| E G2 A|\
 E E D C| E3| G/2G/2| A G/2G/2 A G| E G2 A| E E/2E/2 D C| E- C2 G,|\
 C C C C| G/2E/2 E2 E/2E/2| D C/2C/2 A, G,| A,3||
